X: 4
T: Drowsy Maggie
C: trad.
N: arr. by Tom Morley (simplified by JC)
R: reel
S: Fiddle Hell Online 2021-11-04
Z: 2022 John Chambers <jc:trillian.mit.edu>
M: 4/4
L: 1/8
K: Em
 D !segno!|\
"Em"vE2(uBE) dEBE | E2(BE) "D"A(FDF) | "Em"E2(BE) dEBE | "C"(BA)Bc (dA)F :: A | "D"vd2fd "A"c2e(uc |
"D"de)fg afge |1 d2fd "A"c2e(uc | "G"BA)Bc dAF :|2 afge fde(uc | "D"BA)Bc DAFD !segno!:|["End" "Em"E8 |]


